Bloom-Colors/scalable/actions/system-switch-user-symbolic.svg

<svg xmlns="http://www.w3.org/2000/svg" width="16" height="16" version="1.1">
 <path style="fill:#444444" d="M 10 2 C 8.34 2 7 3.34 7 5 C 7 6.65 8.34 8 10 8 C 11.66 8 13 6.65 13 5 C 13 3.34 11.66 2 10 2 z M 10 10 C 4.723 10 4 14 4 14 L 4 15 L 16 15 L 16 14 C 16 14 16 10 10 10 z"/>
 <path style="fill:#444444;opacity:0.3" d="M 5 3.9492188 C 3.57 3.9492188 2.4101562 5.0807031 2.4101562 6.4707031 C 2.4101562 7.8707031 3.57 9 5 9 C 5.92 9 6.7196875 8.5300781 7.1796875 7.8300781 C 6.4496875 7.1000781 6 6.1 6 5 C 6 4.72 6.0300781 4.4494531 6.0800781 4.1894531 C 5.7499781 4.0394531 5.39 3.9492188 5 3.9492188 z M 5 10 C 0 10 0 13 0 13 L 0 14 L 3 14 C 3 14 3.00922 12.660391 3.9492188 11.400391 C 4.3192187 10.900391 4.8607813 10.419531 5.5507812 10.019531 C 5.3707813 10.009531 5.2 10 5 10 z"/>
</svg>

<svg width="16" height="16" version="1.1" xmlns="http://www.w3.org/2000/svg">
<path d="m10 2c-1.66 0-3 1.34-3 3 0 1.65 1.34 3 3 3s3-1.35 3-3c0-1.66-1.34-3-3-3zm0 8c-5.277 0-6 4-6 4v1h12v-1s0-4-6-4z" fill="#666"/>
<path d="m5 3.9492c-1.43 0-2.5898 1.1315-2.5898 2.5215 0 1.4 1.1598 2.5293 2.5898 2.5293 0.92 0 1.7197-0.46992 2.1797-1.1699-0.73-0.73-1.1797-1.7301-1.1797-2.8301 0-0.28 0.030078-0.55055 0.080078-0.81055-0.3301-0.15-0.69008-0.24023-1.0801-0.24023zm0 6.0508c-5 0-5 3-5 3v1h3s0.00922-1.3396 0.94922-2.5996c0.37-0.5 0.91156-0.98086 1.6016-1.3809-0.18-0.01-0.35078-0.019531-0.55078-0.019531z" fill="#666" opacity=".3"/>
</svg>
